X:8001
T:Harper's Frolic
T:Harpers Frolick
R:Polka
C:Trad.
O:Ireland
M:2/4
L:1/8
Q:1/4=100
K:D
A/G/|"D"FA DA/G/|F/G/A Dd|"A"cd ec|"D"d/c/d/e/ fA/G/|
"D"FA DA/G/|F/G/A Dd|"A"cd ec|"D"d2 d:|
|:d/e/|"D"fd d e/f/|"Em"ge eg|"D"fd df|"E"e/d/c/B/ "A"A d/e/|
"D"fd d e/f/|"Em"ge eg|"D"f/e/d "A"ec|"D"d2 d:|

